X: 12295
T: Fairy Queen, The
R: hornpipe
M: 4/4
K: Dmajor
d2ec d2AG|FDFA dAFA|G2BG E2ef|gece dcBA|
dfec d2AG|FDFA dAFA|G2FG E2ef|gece d3A:|
|:df~f2 gece|da~a2 ba^ga|fdAF G2ef|ge~e2 ge~e2|
df~f2 gfef|da~a2 ba^ga|fdAF G2ef|gece d3A:|

